app/dist/common/images/ferrotec.svg

<svg height="18" viewBox="0 0 18 18" width="18" xmlns="http://www.w3.org/2000/svg"><path d="m0 0h18v18h-18z" fill="#f0f3fa"/><path d="m6 6.95v7.05h2v-4h4v-2h-4v-1.05c0-.65.47-.95 1.17-.95h2.83v-2h-2.86c-1.74 0-3.14 1.32-3.14 2.95z" fill="#17449a"/></svg>

<!-- by TradingView --><svg xmlns="http://www.w3.org/2000/svg" width="18" height="18" viewBox="0 0 18 18"><path fill="#F0F3FA" d="M0 0h18v18H0z"/><path d="M6 6.95V14h2v-4h4V8H8V6.95C8 6.3 8.47 6 9.17 6H12V4H9.14C7.4 4 6 5.32 6 6.95Z" fill="#17449A"/></svg>
